src/images/deploy-source.svg

<svg xmlns="http://www.w3.org/2000/svg" width="115" height="114" fill="none" viewBox="0 0 115 114"><rect width="115" height="114" fill="#1D4AFF" rx="10"/><path fill="#fff" fill-rule="evenodd" stroke="#fff" stroke-linecap="round" stroke-linejoin="round" stroke-width="2.75" d="M56.9937 19C36.0043 19 19 35.6072 19 56.0907C19 73.4168 31.1875 87.9218 47.6388 92L47.7865 83.5913C47.7865 83.5913 39.8501 86.2022 35.3837 80.9762C34.1721 79.5594 34.4085 77.226 32.8128 75.7208C31.276 74.3276 29.8714 72.7963 28.6166 71.1465C28.6166 71.1465 31.9938 70.9951 33.7753 71.9873C35.5568 72.9796 37.6549 78.2939 40.5297 79.0044C43.4046 79.7149 47.8372 78.1257 47.8372 78.1257L49.8677 73.2781C40.4284 73.2781 32.6651 65.664 32.6651 56.9316C32.6651 52.1218 33.2645 46.9841 36.9288 44.0831C36.0823 42.6746 35.5671 41.0935 35.4217 39.4583C35.2106 36.797 36.9288 33.938 36.9288 33.938C38.7389 33.8361 40.5519 34.0816 42.269 34.6612C44.7681 35.6114 46.9127 37.7388 46.9127 37.7388C46.9127 37.7388 52.1727 36.1705 57.2047 36.0822C60.535 36.0892 63.8492 36.5432 67.0578 37.4318C68.5058 36.5099 70.0182 35.6922 71.5832 34.9849C73.057 34.397 74.5877 33.9617 76.1509 33.6858C77.2869 35.094 77.9996 36.7935 78.2068 38.588C78.4685 41.4302 77.1894 45.0627 77.1894 45.0627C80.4991 47.9469 81.6642 51.8401 81.6642 56.3766C81.6642 65.1048 73.5758 72.6852 63.8916 73.5766C63.2964 73.6312 65.7322 74.4763 66.2937 76.0571C67.5137 79.4795 67.0155 87.4383 66.6651 91.9159C82.9644 87.7368 95 73.3075 95 56.0865C95 35.6072 77.9831 19 56.9937 19Z" clip-rule="evenodd"/></svg>

<svg fill="none" viewBox="0 0 115 114"><rect width="115" height="114" fill="#1D4AFF" rx="10"/><path fill="#fff" fill-rule="evenodd" stroke="#fff" stroke-linecap="round" stroke-linejoin="round" stroke-width="2.75" d="M56.994 19C36.004 19 19 35.607 19 56.09 19 73.418 31.188 87.923 47.639 92l.147-8.409s-7.936 2.611-12.402-2.615c-1.212-1.417-.976-3.75-2.571-5.255a33.76 33.76 0 01-4.196-4.575s3.377-.15 5.158.841c1.782.993 3.88 6.307 6.755 7.017s7.307-.878 7.307-.878l2.03-4.848c-9.439 0-17.202-7.614-17.202-16.346 0-4.81.6-9.948 4.264-12.849a10.842 10.842 0 01-1.507-4.625c-.211-2.661 1.507-5.52 1.507-5.52 1.81-.102 3.623.144 5.34.723 2.5.95 4.644 3.078 4.644 3.078s5.26-1.569 10.292-1.657c3.33.007 6.644.461 9.853 1.35a36.14 36.14 0 014.525-2.447 23.222 23.222 0 014.568-1.3 9.553 9.553 0 012.056 4.903c.262 2.842-1.018 6.475-1.018 6.475 3.31 2.884 4.475 6.777 4.475 11.314 0 8.728-8.088 16.308-17.772 17.2-.596.054 1.84.9 2.402 2.48 1.22 3.422.722 11.381.371 15.859C82.965 87.736 95 73.308 95 56.086 95 35.608 77.983 19 56.994 19z" clip-rule="evenodd"/></svg>
